X:1
T: The Flower of England and France
C:
R:Jig
Q:180
K:G
M:6/8
L:1/16
|:dc|B4G2 E2G2E2|D4D2 D2E2G2|A4A2 A4G2|A4B2 c2d2c2|
B4G2 E2G2E2|D4D2 D2E2G2|A4A2 d4B2|A6 G4:|
Bc|d4B2 G4c2|B2c2d2 d4B2|c4e2 e2d2c2|d4B2 A4B2|
c4e2 e2d2c2|B4d2 d2c2B2|A2A2A2 A4G2|A4B2 c2d2c2|
B4G2 E2G2E2|D4D2 D2E2G2|A4A2 A4G2|A4B2 c2d2c2|
B4G2 E2G2E2|D4D2 D2E2G2|A4A2 d4B2|A6 G4||

